src/pos-icons/sign-direction-remove.svg

<svg height="24" viewBox="0 0 24 24" width="24" xmlns="http://www.w3.org/2000/svg"><path d="m13 20h.09a5.5 5.5 0 0 0 .72 2h-4.81a2 2 0 0 1 2-2v-8h-7.5l2.5-2.5-2.5-2.5h7.5v-4l1-1 1 1v4h5l2.5 2.5-2.5 2.5h-5m8.12 3.46-2.12 2.13-2.12-2.13-1.42 1.42 2.13 2.12-2.13 2.12 1.42 1.42 2.12-2.13 2.12 2.13 1.42-1.42-2.13-2.12 2.13-2.12z"/></svg>

<?xml version="1.0" encoding="UTF-8"?><!DOCTYPE svg PUBLIC "-//W3C//DTD SVG 1.1//EN" "http://www.w3.org/Graphics/SVG/1.1/DTD/svg11.dtd"><svg xmlns="http://www.w3.org/2000/svg" xmlns:xlink="http://www.w3.org/1999/xlink" version="1.1" id="mdi-sign-direction-remove" width="24" height="24" viewBox="0 0 24 24"><path d="M13 20H13.09A5.5 5.5 0 0 0 13.81 22H9A2 2 0 0 1 11 20V12H3.5L6 9.5L3.5 7H11V3L12 2L13 3V7H18L20.5 9.5L18 12H13M21.12 15.46L19 17.59L16.88 15.46L15.46 16.88L17.59 19L15.46 21.12L16.88 22.54L19 20.41L21.12 22.54L22.54 21.12L20.41 19L22.54 16.88Z" /></svg>
